src/assets/selectIcons/chiave_1.svg

<svg xmlns="http://www.w3.org/2000/svg" viewBox="0 0 512 512"><path d="M0 0h512v512H0z"/><path fill="#fff" d="M273.764 23.62c-66.823 0-121.229 54.116-121.229 120.689 0 29.28 10.528 56.147 28.004 77.064a86.539 86.539 0 0 0-1.723 4.336c-3.952 10.807-5.462 21.415-4.386 30.719.718 6.21 2.773 12.468 6.851 16.965L135.598 398.31l-47.672-18.782-6.598 16.748 48.084 18.942-6.656 18.203-35.404-13.35L81 436.916c17.473 6.585 34.944 13.174 52.416 19.762 21.79-59.28 44.967-122.985 64.79-177.157 6.027-.835 11.645-4.313 16.206-8.61 4.434-4.179 8.385-9.48 11.695-15.636a120.583 120.583 0 0 0 20.153 6.588c.63 9.197 2.754 17.572 6.236 24.502 2.81 5.592 6.893 10.773 12.268 13.61v95.947h-56.116v18h56.116v19.228h-37.41v18h37.41v19.23h-56.116v18h74.116V299.976c5.375-2.837 9.458-8.018 12.267-13.61 3.482-6.93 5.606-15.305 6.237-24.502a120.583 120.583 0 0 0 20.152-6.588c3.31 6.156 7.261 11.457 11.695 15.635 4.561 4.298 10.178 7.777 16.207 8.611l32.867 89.87-34.746 11.23 5.536 17.127c11.799-3.812 23.597-7.627 35.396-11.441l6.686 18.279-58.436 20.453 5.947 16.99c19.557-6.848 39.115-13.693 58.672-20.539l6.64 18.16-17.798 6.422 6.11 16.932c11.602-4.183 23.203-8.37 34.804-12.557-21.677-59.615-44.958-122.945-64.754-177.054 4.078-4.496 6.134-10.755 6.852-16.965 1.076-9.304-.435-19.912-4.387-30.719a86.539 86.539 0 0 0-1.723-4.336c17.476-20.917 28.004-47.785 28.004-77.064 0-66.573-54.405-120.69-121.228-120.69zm0 18c57.141 0 103.228 45.89 103.228 102.689 0 22.64-7.33 43.544-19.758 60.503a53.525 53.525 0 0 0-5.004-5.443c-6.833-6.439-16.033-11.076-25.443-7.668-9.41 3.409-13.465 12.849-14.54 22.153-.879 7.592-.032 16.053 2.456 24.783a102.855 102.855 0 0 1-14.166 4.884c-1.023-6.606-2.878-12.657-5.506-17.886-4.21-8.379-11.262-15.865-21.267-15.865-10.006 0-17.059 7.486-21.268 15.865-2.627 5.23-4.482 11.28-5.506 17.886a102.853 102.853 0 0 1-14.166-4.886c2.488-8.729 3.333-17.19 2.455-24.781-1.076-9.304-5.129-18.744-14.539-22.153-9.41-3.408-18.61 1.23-25.443 7.668a53.525 53.525 0 0 0-5.004 5.443c-12.428-16.959-19.758-37.862-19.758-60.503 0-56.798 46.087-102.69 103.229-102.69zm-59.527 167.02c.617.075 2.49 1.653 3.144 7.315.428 3.7.152 8.54-.947 13.82a103.29 103.29 0 0 1-13.961-11.12c1.716-2.506 3.485-4.63 5.177-6.225 3.64-3.43 5.97-3.866 6.587-3.79zm125.64 3.79c1.693 1.595 3.461 3.719 5.178 6.224a103.29 103.29 0 0 1-13.961 11.121c-1.1-5.28-1.375-10.12-.948-13.82.655-5.662 2.525-7.24 3.143-7.316.618-.075 2.949.362 6.588 3.79zm-66.113 15.34c.324 0 2.623.848 5.183 5.945 1.631 3.247 3.012 7.732 3.805 12.896-2.962.253-5.959.389-8.988.389-3.03 0-6.026-.136-8.989-.389.793-5.164 2.174-9.65 3.805-12.896 2.56-5.097 4.86-5.945 5.184-5.945zm-79.246 7.802a121.914 121.914 0 0 0 15.58 11.399c-2.527 4.608-5.38 8.37-8.04 10.877-4.154 3.914-6.604 3.931-6.907 3.822-.303-.109-2.169-1.689-2.823-7.346-.558-4.829.066-11.587 2.19-18.752zm158.492 0c2.123 7.165 2.746 13.923 2.187 18.752-.654 5.657-2.52 7.237-2.822 7.346-.302.11-2.754.092-6.908-3.822-2.66-2.506-5.51-6.27-8.037-10.877a121.915 121.915 0 0 0 15.58-11.399zm-88.33 29.09c3 .222 6.028.338 9.084.338 3.055 0 6.084-.116 9.084-.338-.771 5.467-2.195 10.227-3.9 13.623-2.561 5.097-4.86 5.945-5.184 5.945-.325 0-2.623-.848-5.184-5.945-1.706-3.396-3.13-8.156-3.9-13.623z"/></svg>

<?xml version="1.0" encoding="UTF-8" standalone="no"?>
<!DOCTYPE svg PUBLIC "-//W3C//DTD SVG 1.1//EN" "http://www.w3.org/Graphics/SVG/1.1/DTD/svg11.dtd">
<svg width="100%" height="100%" viewBox="0 0 512 512" version="1.1" xmlns="http://www.w3.org/2000/svg" xmlns:xlink="http://www.w3.org/1999/xlink" xml:space="preserve" xmlns:serif="http://www.serif.com/" style="fill-rule:evenodd;clip-rule:evenodd;stroke-linejoin:round;stroke-miterlimit:2;">
    <rect x="0" y="0" width="512" height="512" style="fill-rule:nonzero;"/>
    <path d="M273.764,23.62C206.941,23.62 152.535,77.736 152.535,144.309C152.535,173.589 163.063,200.456 180.539,221.373C179.926,222.803 179.351,224.248 178.816,225.709C174.864,236.516 173.354,247.124 174.43,256.428C175.148,262.638 177.203,268.896 181.281,273.393L135.598,398.31L87.926,379.528L81.328,396.276L129.412,415.218L122.756,433.421L87.352,420.071L81,436.916C98.473,443.501 115.944,450.09 133.416,456.678C155.206,397.398 178.383,333.693 198.206,279.521C204.233,278.686 209.851,275.208 214.412,270.911C218.846,266.732 222.797,261.431 226.107,255.275C232.618,258.058 239.362,260.263 246.26,261.863C246.89,271.06 249.014,279.435 252.496,286.365C255.306,291.957 259.389,297.138 264.764,299.975L264.764,395.922L208.648,395.922L208.648,413.922L264.764,413.922L264.764,433.15L227.354,433.15L227.354,451.15L264.764,451.15L264.764,470.38L208.648,470.38L208.648,488.38L282.764,488.38L282.764,299.976C288.139,297.139 292.222,291.958 295.031,286.366C298.513,279.436 300.637,271.061 301.268,261.864C308.166,260.264 314.909,258.059 321.42,255.276C324.73,261.432 328.681,266.733 333.115,270.911C337.676,275.209 343.293,278.688 349.322,279.522L382.189,369.392L347.443,380.622L352.979,397.749C364.778,393.937 376.576,390.122 388.375,386.308L395.061,404.587L336.625,425.04L342.572,442.03C362.129,435.182 381.687,428.337 401.244,421.491L407.884,439.651L390.086,446.073L396.196,463.005C407.798,458.822 419.399,454.635 431,450.448C409.323,390.833 386.042,327.503 366.246,273.394C370.324,268.898 372.38,262.639 373.098,256.429C374.174,247.125 372.663,236.517 368.711,225.71C368.176,224.249 367.601,222.804 366.988,221.374C384.464,200.457 394.992,173.589 394.992,144.31C394.992,77.737 340.587,23.62 273.764,23.62ZM273.764,41.62C330.905,41.62 376.992,87.51 376.992,144.309C376.992,166.949 369.662,187.853 357.234,204.812C355.693,202.884 354.021,201.066 352.23,199.369C345.397,192.93 336.197,188.293 326.787,191.701C317.377,195.11 313.322,204.55 312.247,213.854C311.368,221.446 312.215,229.907 314.703,238.637C310.106,240.607 305.371,242.24 300.537,243.521C299.514,236.915 297.659,230.864 295.031,225.635C290.821,217.256 283.769,209.77 273.764,209.77C263.758,209.77 256.705,217.256 252.496,225.635C249.869,230.865 248.014,236.915 246.99,243.521C242.155,242.239 237.421,240.606 232.824,238.635C235.312,229.906 236.157,221.445 235.279,213.854C234.203,204.55 230.15,195.11 220.74,191.701C211.33,188.293 202.13,192.931 195.297,199.369C193.506,201.066 191.834,202.884 190.293,204.812C177.865,187.853 170.535,166.95 170.535,144.309C170.535,87.511 216.622,41.619 273.764,41.619L273.764,41.62ZM214.237,208.64C214.854,208.715 216.727,210.293 217.381,215.955C217.809,219.655 217.533,224.495 216.434,229.775C211.468,226.478 206.797,222.758 202.473,218.655C204.189,216.149 205.958,214.025 207.65,212.43C211.29,209 213.62,208.564 214.237,208.64ZM339.877,212.43C341.57,214.025 343.338,216.149 345.055,218.654C340.731,222.757 336.06,226.478 331.094,229.775C329.994,224.495 329.719,219.655 330.146,215.955C330.801,210.293 332.671,208.715 333.289,208.639C333.907,208.564 336.238,209.001 339.877,212.429L339.877,212.43ZM273.764,227.77C274.088,227.77 276.387,228.618 278.947,233.715C280.578,236.962 281.959,241.447 282.752,246.611C279.79,246.864 276.793,247 273.764,247C270.734,247 267.738,246.864 264.775,246.611C265.568,241.447 266.949,236.961 268.58,233.715C271.14,228.618 273.44,227.77 273.764,227.77ZM194.518,235.572C199.402,239.778 204.612,243.589 210.098,246.971C207.571,251.579 204.718,255.341 202.058,257.848C197.904,261.762 195.454,261.779 195.151,261.67C194.848,261.561 192.982,259.981 192.328,254.324C191.77,249.495 192.394,242.737 194.518,235.572ZM353.01,235.572C355.133,242.737 355.756,249.495 355.197,254.324C354.543,259.981 352.677,261.561 352.375,261.67C352.073,261.78 349.621,261.762 345.467,257.848C342.807,255.342 339.957,251.578 337.43,246.971C342.916,243.589 348.126,239.778 353.01,235.572ZM264.68,264.662C267.68,264.884 270.708,265 273.764,265C276.819,265 279.848,264.884 282.848,264.662C282.077,270.129 280.653,274.889 278.948,278.285C276.387,283.382 274.088,284.23 273.764,284.23C273.439,284.23 271.141,283.382 268.58,278.285C266.874,274.889 265.45,270.129 264.68,264.662Z" style="fill:rgb(184,172,118);fill-rule:nonzero;"/>
</svg>
